X:7878
T:Bourlesq
C:Leopold Mozart
O:Austria
B:Leopold Mozart: "Little Notebook for Nannerl"
Z:Transcribed by Frank Nordberg - http://www.musicaviva.com
F:http://abc.musicaviva.com/tunes/mozart-leopold/l-mozart-bourlesq.abc
M:C|
L:1/8
K:G
GABc|"G"d2dB "C"e2ec|"G"d4 "D7"c2cA|"G"B2BG "D7"A2AF|"G"G4:|
d4|"C"c4 "G"B2BG|"D7"A2AF "G"G4|"G"d4 "C"c4|"G"B2BG "D7"A2AF|"G"G4|]
W:
W:
W:  From Musica Viva - http://www.musicaviva.com
W:  the Internet center for free sheet music downloads.
